X:0464
T:Wattie Lang.
M:C
L:1/8
Q:1/2=100
I: :: ::
Z:Jack Campin * www.campin.me.uk * 2009
K:G
B|G>dB>d    A/A/A A>B|G>dB>d    G>dB>d   |c>eB>d    A>Bc>e|dcBA GAB::
d|G/G/G g>B A>Bc>e   |G/G/G g>B G/G/G g>B|G/G/G g>B A>Bc>e|dcBA GABd|
  G/G/G g>B ABce     |G/G/G g2  fe/d/ g2 |fe/d/ g>B A>Bc>e|dcBA GAB:|
<end>
<start>
